X:1
T:James Gibb editions
T:Rest of the weary - Barnby
%%score [ ( 1 2 ) ( 3 4 ) ]
L:1/8
Q:1/4=84
M:3/4
K:D
V:1 treble nm="Midi_74"
V:2 treble 
V:3 bass nm="Midi_74"
V:4 bass 
V:1
"^J. S. B. Monsell\n(1811-75)""^99. 99""^Rest of the weary""^Joseph Barnby\n(1838-96)"!p! F2 E2 F2 | %1
!>(! A4!>)! G2 | G2 F2 E2 | D6 ||"^cresc." G2 F2 B2 | A2- d2 c2 | f2"^1" d2 cB | A6 || %8
[M:3/4]!f! e2 c2 B2 | A4 A2 | d2 B2 A2 | G6 ||"^-" B2 A2 G2 | (F2 E2) D2 | FE D2 C2 | D6 || G6 | %17
 F6 |] %18
V:2
 D2 D2 D2 | D4 D2 | C2 C2 C2 | D6 || D2 D2 D2 | (E2 A2) A2 | A2 A2 ^G2 | A6 || %8
[M:3/4] !courtesy!=G2 G2 G2 | G4 F2 | F2 F2 F2 | G6 || C2 D2 E2 | (D2 C2) D2 | B,2 A,2 A,2 | A,6 || %16
 D6 | D6 |] %18
V:3
!p! A,2 G,2 A,2 | =C4 B,2 | B,2 A,2 G,2 | F,6 || G,2 A,2 B,2 | (C2 D2) E2 | F2 F2 D2 | C6 || %8
[M:3/4]!f! C2 C2 D2 | (E2 C2) D2 | %10
"^dim.""^1. Rest of the weary, joy of the sad,\nHope of the dreary, light of the glad;\nHome of the stranger, strength to the end,\nRefuge from danger, Saviour and friend!\n\n2. Pillow where lying, love rests its head,\nPeace of the dying, life of the dead:\nPath of the lowly, prize at the end,\nBreath of the holy, Saviour and friend!\n\n3. When my feet stumble, to Thee I’ll cry,\nCrown of the humble, cross of the high;\nWhen my steps wander, over me bend\nTruer and fonder, Saviour and friend!\n\n4. Ever confessing Thee, I will raise\nUnto Thee blessing, glory and praise:\nAll my endeavour, world without end,\nThine to be ever, Saviour and friend!" A,2 D2 =C2 | %11
 B,6 || G,2 A,2 A,2 | (A,2 G,2) F,2 | A,G, F,2 E,2 | F,6 || B,6 | A,6 |] %18
V:4
 D,2 D,2 D,2 | G,,4 G,,2 | A,,2 A,,2 A,,2 | B,,6 || B,,2 A,,2 G,,2 | (G,2 F,2) E,2 | D,2 B,,2 E,2 | %7
 A,,6 ||[M:3/4] A,2 A,2 B,2 | (C2- A,2) D2 | D,2 D,2 D,2 | G,6 || E,2 F,2 C,2 | (D,2 A,,2) B,,2 | %14
 G,,2 A,,2 A,,2 | D,6 || G,,6 | D,6 |] %18

